X:104
T: Meins Herzens Schoene
N: A0118
O: Europa, Mitteleuropa, Deutschland
N: Triller 1555 "Ein Gesang von Christo und seiner heiligen Gemeinde
N: auf eine alte Tageweise"
R: Romanze, Ballade, Lied
M: 4/2
L: 1/4
K: F
 |  |  |  | z2F2F2F2 | A3GF2F2 | G4A4
A4 | c4c2A4B2 | G4F4
z2F2F2F2 | A3GF2F2 | G4A4
A4 | c4c2A4B2 | G4F4
A4 | A4A2G4G2 | F2EDG4 | G4z2
C2 | F4F2F4F2 | G2G2F4z2
F2 | G4G2G4G2 | A3Bcdc4BA | G2F2G4 | F8

